X:349
T:Cordick's Hornpipe
B:Joyce, P. W.; "Old Irish Folk Music and Songs"
N:See #347 for history
R:hornpipe
A:Limerick
O:Irish
L:1/8
M:C
K:D
(3ABc|dAFA BGEG|FA dd d2 A2|Bdgf feed|ceAA AGFE|
Fddd dAGF|Eeee ecBA|afbg fedc|d2 d2 d3::B|
dgba gfed|ceag fedc|Bdgf feed|ecAA AGFE|
Fddd dAGF|Eeee ecBA|afbg fedc|d2 d2 d2:|

